!!!COM: Mozart, Wolfgang Amadeus
!!!OTL: Musikalische Würfelspiele, Kontre-Tänze
!!!SCA: K<sup>6</sup> Anh. C30.01 (K<sup>3</sup> Anh. 294d)
**kern	**kern
*staff2	*staff2
*clefF4	*clefG2
*M2/4	*M2/4
*MM110	*MM110
*>[A,A1,A,A2,B]	*>[A,A1,A,A2,B]
*>norep[A,A2,B]	*>norep[A,A2,B]
*>A	*>A
=7	=7
4C	8cc
.	8cc
4C	8ee
.	8ee
=152	=152
4C	8gg
.	16ccc
.	16gg
4r	8ee
.	8cc
=112	=112
4G	8ff
.	8dd
4GG	8b
.	8g
=121	=121
4C	8cc
.	16ee
.	16cc
4GG	4g
=149	=149
4D	8d
.	4dd
4r	.
.	16ff#
.	16aa
=156	=156
4G	8gg
.	4bb
4r	.
.	16gg
.	16dd
=49	=49
4C	16ee
.	16cc
.	16b
.	16a
8D	16g
.	16b
8DD	16f#
.	16a
=83	=83
*>A1	*>A1
4GG	4g 4b 4gg
16G	4r
16F	.
16E	.
16D	.
=83:|!	=83:|!
*>A2	*>A2
4GG	4g 4b 4gg
16GG	4r
16AA	.
16BB	.
16C#	.
=144||	=144||
*>B	*>B
4D	8d
.	16f#
.	16a
4D	8dd
.	8ff#
=104	=104
4G	8gg
.	16ddd
.	16bb
4GG	4gg
=38	=38
8C	16cc
.	16ccc
8r	16gg
.	16ee
8C	16cc
.	16gg
8r	16ee
.	16cc
=19	=19
4GG	16dd
.	16b
.	16cc
.	16a
4r	16g
.	16gg
.	16ff
.	16dd
=75	=75
16C	4cc
16GG	.
16AA	.
16BB	.
16C	8cc
16GG	.
16AA	8cc
16BB	.
=110	=110
8E	8cc
16E	8ee
16E	.
8E	8cc
8C	8g
=96	=96
16G	8dd
16D	.
16BB	8dd
16GG	.
16G	8b
16D	.
16BB	8b
16GG	.
=65	=65
4C	8cc
.	8cc
4CC	4cc
==	==
*-	*-
